Numix/16/status/indicator-keyboard-Nl-2.svg

<?xml version="1.0" encoding="UTF-8" standalone="no"?>
<svg
   xmlns:dc="http://purl.org/dc/elements/1.1/"
   xmlns:cc="http://creativecommons.org/ns#"
   xmlns:rdf="http://www.w3.org/1999/02/22-rdf-syntax-ns#"
   xmlns:svg="http://www.w3.org/2000/svg"
   xmlns="http://www.w3.org/2000/svg"
   xmlns:sodipodi="http://sodipodi.sourceforge.net/DTD/sodipodi-0.dtd"
   xmlns:inkscape="http://www.inkscape.org/namespaces/inkscape"
   viewBox="0 0 16 16"
   id="svg2"
   version="1.1"
   inkscape:version="0.91 r13725"
   sodipodi:docname="indicator-keyboard-Nl-2.svg">
  <metadata
     id="metadata14">
    <rdf:RDF>
      <cc:Work
         rdf:about="">
        <dc:format>image/svg+xml</dc:format>
        <dc:type
           rdf:resource="http://purl.org/dc/dcmitype/StillImage" />
      </cc:Work>
    </rdf:RDF>
  </metadata>
  <defs
     id="defs12" />
  <sodipodi:namedview
     pagecolor="#ffffff"
     bordercolor="#666666"
     borderopacity="1"
     objecttolerance="10"
     gridtolerance="10"
     guidetolerance="10"
     inkscape:pageopacity="0"
     inkscape:pageshadow="2"
     inkscape:window-width="640"
     inkscape:window-height="480"
     id="namedview10"
     showgrid="false"
     inkscape:zoom="14.75"
     inkscape:cx="8"
     inkscape:cy="8"
     inkscape:window-x="65"
     inkscape:window-y="24"
     inkscape:window-maximized="0"
     inkscape:current-layer="svg2" />
  <path
     style="fill:#ececec;fill-opacity:1"
     d="M 1.5996094 0 C 0.71320937 2.9605947e-16 0 0.71320937 0 1.5996094 L 0 14.400391 C 2.9605947e-16 15.286791 0.71320937 16 1.5996094 16 L 14.400391 16 C 15.286791 16 16 15.286791 16 14.400391 L 16 1.5996094 C 16 0.71320937 15.286791 0 14.400391 0 L 1.5996094 0 z M 9.5800781 4.1113281 L 9.5800781 9.9628906 C 9.5800781 10.106891 9.5912344 10.2225 9.6152344 10.3125 C 9.6452344 10.3965 9.6881875 10.465531 9.7421875 10.519531 C 9.7961875 10.567531 9.8652187 10.604906 9.9492188 10.628906 C 10.039219 10.652906 10.143672 10.673406 10.263672 10.691406 L 10.183594 11.177734 C 9.9855935 11.171734 9.8101562 11.143703 9.6601562 11.095703 C 9.5161562 11.053703 9.3949688 10.988438 9.2929688 10.898438 C 9.1969687 10.802437 9.1204063 10.681109 9.0664062 10.537109 C 9.0184062 10.387109 8.9941406 10.202469 8.9941406 9.9804688 L 8.9941406 4.2207031 L 9.5800781 4.1113281 z M 2.6601562 4.859375 L 3.1445312 4.859375 C 3.4505313 5.201375 3.7789531 5.596875 4.1269531 6.046875 C 4.4809531 6.490875 4.8261094 6.9460625 5.1621094 7.4140625 C 5.4981094 7.8760625 5.8096563 8.3294375 6.0976562 8.7734375 C 6.3916562 9.2174375 6.6304063 9.6055469 6.8164062 9.9355469 L 6.8164062 4.859375 L 7.4199219 4.859375 L 7.4199219 11.095703 L 6.90625 11.095703 C 6.79225 10.885703 6.6467969 10.639422 6.4667969 10.357422 C 6.2927969 10.075422 6.100625 9.7750312 5.890625 9.4570312 C 5.680625 9.1330313 5.4586094 8.80475 5.2246094 8.46875 C 4.9906094 8.12675 4.7554844 7.7965156 4.5214844 7.4785156 C 4.2934844 7.1545156 4.0696563 6.8503594 3.8476562 6.5683594 C 3.6316563 6.2863594 3.4357187 6.0438437 3.2617188 5.8398438 L 3.2617188 11.095703 L 2.6601562 11.095703 L 2.6601562 4.859375 z M 12.013672 8.7539062 C 12.407572 8.7539062 12.703444 8.851875 12.902344 9.046875 C 13.101244 9.237975 13.201172 9.5044563 13.201172 9.8476562 C 13.201172 9.9997563 13.173741 10.14475 13.119141 10.28125 C 13.064541 10.41385 12.990084 10.543169 12.896484 10.667969 C 12.806784 10.792769 12.702937 10.912297 12.585938 11.029297 C 12.468938 11.146297 12.349416 11.263859 12.228516 11.380859 C 12.127116 11.478359 12.029141 11.578288 11.931641 11.679688 C 11.838041 11.777187 11.751828 11.877116 11.673828 11.978516 C 11.599728 12.076016 11.538987 12.172031 11.492188 12.269531 C 11.449288 12.363131 11.427734 12.457181 11.427734 12.550781 L 11.427734 12.5625 L 13.339844 12.5625 L 13.339844 12.896484 L 11.005859 12.896484 C 11.005859 12.888684 11.003867 12.874969 11 12.855469 L 11 12.755859 C 11 12.572559 11.033309 12.402094 11.099609 12.246094 C 11.165909 12.086194 11.250162 11.937275 11.351562 11.796875 C 11.456862 11.656475 11.572466 11.525197 11.697266 11.404297 C 11.825966 11.283397 11.949406 11.165834 12.066406 11.052734 C 12.163906 10.959134 12.254044 10.869003 12.339844 10.783203 C 12.429544 10.693503 12.507919 10.603366 12.574219 10.509766 C 12.640519 10.416166 12.693422 10.316237 12.732422 10.210938 C 12.771422 10.105638 12.791016 9.9900344 12.791016 9.8652344 C 12.791016 9.5922344 12.716559 9.39825 12.568359 9.28125 C 12.424059 9.16035 12.241831 9.0996094 12.019531 9.0996094 C 11.894731 9.0996094 11.783047 9.1152844 11.685547 9.1464844 C 11.588047 9.1776844 11.501834 9.2149125 11.427734 9.2578125 C 11.357534 9.2968125 11.296794 9.3379594 11.246094 9.3808594 C 11.195394 9.4237594 11.158166 9.4570688 11.134766 9.4804688 L 10.935547 9.2167969 C 10.958947 9.1894969 11.000094 9.1503094 11.058594 9.0996094 C 11.120994 9.0450094 11.197409 8.9921062 11.287109 8.9414062 C 11.380709 8.8907063 11.488475 8.8476 11.609375 8.8125 C 11.730275 8.7735 11.865472 8.7539063 12.013672 8.7539062 z "
     id="path4" />
</svg>

<svg xmlns="http://www.w3.org/2000/svg" viewBox="0 0 16 16">
 <path d="m 1.6 0 c -0.886 0 -1.6 0.713 -1.6 1.6 l 0 12.801 c 0 0.886 0.713 1.6 1.6 1.6 l 12.801 0 c 0.886 0 1.6 -0.713 1.6 -1.6 l 0 -12.801 c 0 -0.886 -0.713 -1.6 -1.6 -1.6 l -12.801 0 z m 7.98 4.111 l 0 5.852 c 0 0.144 0.011 0.26 0.035 0.35 c 0.03 0.084 0.073 0.153 0.127 0.207 c 0.054 0.048 0.123 0.085 0.207 0.109 c 0.09 0.024 0.194 0.044 0.314 0.063 l -0.08 0.486 c -0.198 -0.006 -0.373 -0.034 -0.523 -0.082 c -0.144 -0.042 -0.265 -0.107 -0.367 -0.197 c -0.096 -0.096 -0.173 -0.217 -0.227 -0.361 c -0.048 -0.15 -0.072 -0.335 -0.072 -0.557 l 0 -5.76 l 0.586 -0.109 z m -6.92 0.748 l 0.484 0 c 0.306 0.342 0.634 0.737 0.982 1.188 c 0.354 0.444 0.699 0.899 1.035 1.367 c 0.336 0.462 0.648 0.915 0.936 1.359 c 0.294 0.444 0.533 0.832 0.719 1.162 l 0 -5.076 l 0.604 0 l 0 6.236 l -0.514 0 c -0.114 -0.21 -0.259 -0.456 -0.439 -0.738 c -0.174 -0.282 -0.366 -0.582 -0.576 -0.9 c -0.21 -0.324 -0.432 -0.652 -0.666 -0.988 c -0.234 -0.342 -0.469 -0.672 -0.703 -0.99 c -0.228 -0.324 -0.452 -0.628 -0.674 -0.91 c -0.216 -0.282 -0.412 -0.525 -0.586 -0.729 l 0 5.256 l -0.602 0 l 0 -6.236 z m 9.354 3.895 c 0.394 0 0.69 0.098 0.889 0.293 c 0.199 0.191 0.299 0.458 0.299 0.801 c 0 0.152 -0.027 0.297 -0.082 0.434 c -0.055 0.133 -0.129 0.262 -0.223 0.387 c -0.09 0.125 -0.194 0.244 -0.311 0.361 c -0.117 0.117 -0.237 0.235 -0.357 0.352 c -0.101 0.098 -0.199 0.197 -0.297 0.299 c -0.094 0.097 -0.18 0.197 -0.258 0.299 c -0.074 0.097 -0.135 0.194 -0.182 0.291 c -0.043 0.094 -0.064 0.188 -0.064 0.281 l 0 0.012 l 1.912 0 l 0 0.334 l -2.334 0 c 0 -0.008 -0.002 -0.022 -0.006 -0.041 l 0 -0.1 c 0 -0.183 0.033 -0.354 0.1 -0.51 c 0.066 -0.16 0.151 -0.309 0.252 -0.449 c 0.105 -0.14 0.221 -0.272 0.346 -0.393 c 0.129 -0.121 0.252 -0.238 0.369 -0.352 c 0.098 -0.094 0.188 -0.184 0.273 -0.27 c 0.09 -0.09 0.168 -0.18 0.234 -0.273 c 0.066 -0.094 0.119 -0.194 0.158 -0.299 c 0.039 -0.105 0.059 -0.221 0.059 -0.346 c 0 -0.273 -0.074 -0.467 -0.223 -0.584 c -0.144 -0.121 -0.327 -0.182 -0.549 -0.182 c -0.125 0 -0.236 0.016 -0.334 0.047 c -0.098 0.031 -0.184 0.068 -0.258 0.111 c -0.07 0.039 -0.131 0.08 -0.182 0.123 c -0.051 0.043 -0.088 0.076 -0.111 0.1 l -0.199 -0.264 c 0.023 -0.027 0.065 -0.066 0.123 -0.117 c 0.062 -0.055 0.139 -0.108 0.229 -0.158 c 0.094 -0.051 0.201 -0.094 0.322 -0.129 c 0.121 -0.039 0.256 -0.059 0.404 -0.059 z" style="fill:#ececec;fill-opacity:1"/>
</svg>
